X: 9
T: Missa Malheur me bat / Agnus Dei
N: Derived from Agr1004e-Missa_Malheur_me_bat-Agnus.krn
C: Alexander Agricola
%%abc-version 2.0
%%abcx-abcm2ps-target-version 5.9.1 (29 Sep 2008)
%%abc-creator hum2abc beta
%%abcx-conversion-date 2019/02/16 20:17:15
%%abc-edited-by Jesse Rodin
%%abc-edited-by Jesse Rodin; Megan K. Eagen 2013/04/23
%%abcx-initial-encoding-date 2013/04/23/
%%humdrum-veritas 980960176
%%humdrum-veritas-data 1581256754
%%linebreak <none>
%%barnumbers 0
L: 1/4
M: 3/1
Q: 1/2=120
%%staves [1 2 3 4]
V: 1 clef=treble
V: 2 clef=treble-8
V: 3 clef=treble-8
V: 4 clef=bass
K: C
[V:1] E12 | 
[V:2] E4E3FG2A2 | 
[V:3] z12 | 
[V:4] z12 | 
[V:1] E3FG2A2G2c2- | 
[V:2] G2c3BcdB2A2- | 
[V:3] z12 | 
[V:4] z12 | 
[V:1] cBcdB2A4G2 | 
[V:2] A2e4f2d2e2- | 
[V:3] z12 | 
[V:4] z12 | 
[V:1] E2F4E2C2D2- | 
[V:2] e2d3c/B/c4B2 | 
[V:3] z12 | 
[V:4] z12 | 
[V:1] D2C2A,2B,4A,2 | 
[V:2] G2A4G2E2F2 | 
[V:3] z12 | 
[V:4] z12 | 
[V:1] B,C2DE2FG2ABA/B/ | 
[V:2] DEF2GA2Bc2d2 | 
[V:3] z12 | 
[V:4] z12 | 
[V:1] c2BG2AB2GE2F | 
[V:2] cBG2zcde2cA2 | 
[V:3] z12 | 
[V:4] z12 | 
[V:1] G2EC2DE2CA,2B, | 
[V:2] Bc2AF2GA2FD2 | 
[V:3] z12 | 
[V:4] z12 | 
[V:1] C3/D/B,2A,D2CDC/B,/A,2 | 
[V:2] EFGEF3/G/E2DG2F | 
[V:3] z4z4z2D2 | 
[V:4] z12 | 
[V:1] G,G2FGF/E/D2Cc2B | 
[V:2] G2A2Gc2Bc2d2 | 
[V:3] E2D2ECG2A2G2 | 
[V:4] z12 | 
[V:1] cB/A/G2EF2E2DE2 | 
[V:2] c2zE2DE2zBcB/A/ | 
[V:3] A2EG2A2G/F/G2Cc | 
[V:4] z12 | 
[V:1] [M:2/1]Bc2B3/A/A2^G | 
[V:2] [M:2/1]GA2GcdB2 | 
[V:3] [M:2/1]Be2EFDE2 | 
[V:4] [M:2/1]z8 | 
[V:1] [M:3/1]A4z2E4C2- | 
[V:2] [M:3/1]A4c4c3B/A/ | 
[V:3] [M:3/1]E6C2C4- | 
[V:4] [M:3/1]A,,12 | 
[V:1] CDEFG3AB2c2- | 
[V:2] G6c2B2e2 | 
[V:3] C4C4z4 | 
[V:4] E,12 | 
[V:1] cBAGA4A4 | 
[V:2] c2df2edc/B/A2d2 | 
[V:3] z2D2D8 | 
[V:4] F,12 | 
[V:1] G4z4E4 | 
[V:2] BGc3BG2zc3/B/A/G/ | 
[V:3] E2C3DEFG2A2- | 
[V:4] E,8C,4 | 
[V:1] F8E4 | 
[V:2] F3GA3Bc4 | 
[V:3] AGFEF4G2E2 | 
[V:4] D,8C,4 | 
[V:1] C4D8 | 
[V:2] c3B/A/G2F2G3F/G/ | 
[V:3] E4D4D3C/D/ | 
[V:4] A,,4B,,8 | 
[V:1] C12 | 
[V:2] A4A4A3B | 
[V:3] E3FEF2E/D/C2F2 | 
[V:4] A,,12 | 
[V:1] z2F2E2F3GA2 | 
[V:2] c6A3/G/FE/D/E2 | 
[V:3] E2A2G2FA2Bc2 | 
[V:4] A,,3B,,C,2D,3C,A,,2 | 
[V:1] GF2EF2A2GF2E/D/ | 
[V:2] D2z2A3c3/B/A2^G | 
[V:3] _BAG2F2E3FD2 | 
[V:4] _B,,2C,2D,2A,,2C,D,=B,,2 | 
[V:1] C2C2EFEF2E/D/C2 | 
[V:2] A6c3BA2 | 
[V:3] E2F2EA2A2GE2- | 
[V:4] A,,8A,,4 | 
[V:1] zG2ABcBc2B/A/G2 | 
[V:2] G3/A/BcBe2e2d/c/BA/c/- | 
[V:3] E2E4E4E2 | 
[V:4] z12 | 
[V:1] A2c2B2A3GF2 | 
[V:2] c/B/A/G/A2G2A3/B/cc2B | 
[V:3] F4G2zF3/E/D/C/D2 | 
[V:4] z12 | 
[V:1] E2F3E^C2D4 | 
[V:2] c2A4A3G/F/G2 | 
[V:3] C2D2A,4B,4 | 
[V:4] z12 | 
[V:1] ^C12- | 
[V:2] A12- | 
[V:3] A,2E3DE2F2E2 | 
[V:4] A,,12- | 
[V:1] C12 ||  
[V:2] A12 ||  
[V:3] E12 ||  
[V:4] A,,12 ||  
[V:1]  [K:C] [K:clef=treble][M:2/1]z8 | 
[V:2]  [K:C] [K:clef=treble-8][M:2/1]E8- | 
[V:3]  [K:C] [K:clef=treble-8][M:2/1]z8 | 
[V:4]  [K:C] [K:clef=bass][M:2/1]E,4G,4- | 
[V:1] z8 | 
[V:2] E8- | 
[V:3] z8 | 
[V:4] G,2E,2G,3A, | 
[V:1] z8 | 
[V:2] E8- | 
[V:3] z8 | 
[V:4] B,2C2B,2G,2 | 
[V:1] E4G4- | 
[V:2] E8- | 
[V:3] z8 | 
[V:4] z8 | 
[V:1] G2E2G3A | 
[V:2] E8- | 
[V:3] z8 | 
[V:4] z8 | 
[V:1] B2c2B2G2- | 
[V:2] E8 | 
[V:3] z8 | 
[V:4] z8 | 
[V:1] G2FED4 | 
[V:2] B8 | 
[V:3] z8 | 
[V:4] z4G,4 | 
[V:1] E4z4 | 
[V:2] c8- | 
[V:3] z8 | 
[V:4] C,3D,E,2F,2 | 
[V:1] z8 | 
[V:2] c8 | 
[V:3] z8 | 
[V:4] E,2C,2E,2F,2 | 
[V:1] z8 | 
[V:2] B8- | 
[V:3] z8 | 
[V:4] G,4z2G,,2- | 
[V:1] z8 | 
[V:2] B8 | 
[V:3] z8 | 
[V:4] G,,A,,B,,C,D,2E,2 | 
[V:1] C3DE2F2 | 
[V:2] A8- | 
[V:3] z8 | 
[V:4] F,4z4 | 
[V:1] E2C2E2F2 | 
[V:2] A8 | 
[V:3] z8 | 
[V:4] z8 | 
[V:1] G3AB2E2- | 
[V:2] G8- | 
[V:3] z8 | 
[V:4] E,3F,G,2C,2- | 
[V:1] EFG2D2E2- | 
[V:2] G8 | 
[V:3] z8 | 
[V:4] C,D,E,F,G,2C,2- | 
[V:1] E2DCB,2G,2 | 
[V:2] E8- | 
[V:3] z8 | 
[V:4] C,D,E,F,G,2B,2- | 
[V:1] C4B,4 | 
[V:2] E8 | 
[V:3] z8 | 
[V:4] B,2A,4G,2 | 
[V:1] A,2C2D2E2 | 
[V:2] F3ED2C2 | 
[V:3] z8 | 
[V:4] A,3G,F,2E,2 | 
[V:1] F2G2A2c2- | 
[V:2] D2E2F4 | 
[V:3] z8 | 
[V:4] D,2C,2C2A,2 | 
[V:1] cBB4A2 | 
[V:2] E4c4 | 
[V:3] z8 | 
[V:4] B,2G,2E,2F,2 | 
[V:1] B2A3EG2 | 
[V:2] B2c2d2e2- | 
[V:3] z8 | 
[V:4] G,2F,3E,C,2 | 
[V:1] F4E2D2 | 
[V:2] e2d2e2f2 | 
[V:3] z8 | 
[V:4] A,,2B,,2C,2_B,,2- | 
[V:1] F3ED2C2 | 
[V:2] d3cBAA2- | 
[V:3] z8 | 
[V:4] B,,A,,F,,2G,,2A,,2 | 
[V:1] D3EF2E2- | 
[V:2] A2G2A4 | 
[V:3] z8 | 
[V:4] _B,,4A,,3=B,, | 
[V:1] EDD4C2 | 
[V:2] G2F2E4 | 
[V:3] z8 | 
[V:4] C,2D,2A,,4 | 
[V:1] D8- | 
[V:2] B8 | 
[V:3] z8 | 
[V:4] G,,8- | 
[V:1] D4F4- | 
[V:2] B4A4- | 
[V:3] z8 | 
[V:4] G,,4D,4 | 
[V:1] F2E2E4- | 
[V:2] A2G2c4- | 
[V:3] z8 | 
[V:4] z4C,4 | 
[V:1] E4D4 | 
[V:2] c4B4 | 
[V:3] z8 | 
[V:4] G,8 | 
[V:1] E8 | 
[V:2] c4B2c2 | 
[V:3] z8 | 
[V:4] C,4G,2A,2 | 
[V:1] z8 | 
[V:2] B2e4d2 | 
[V:3] z8 | 
[V:4] G,2E,2F,4 | 
[V:1] z8 | 
[V:2] e4d2B2- | 
[V:3] z8 | 
[V:4] E,4G,4- | 
[V:1] z8 | 
[V:2] B2c4BA | 
[V:3] z8 | 
[V:4] G,2A,4G,F, | 
[V:1] G6A2- | 
[V:2] c2B2z4 | 
[V:3] z8 | 
[V:4] E,6F,2- | 
[V:1] A2GFE4- | 
[V:2] z4G4- | 
[V:3] z8 | 
[V:4] F,2E,D,C,4 | 
[V:1] E2F3EC2 | 
[V:2] G2A3GE2 | 
[V:3] z8 | 
[V:4] z8 | 
[V:1] D4E3F | 
[V:2] F4E2A2 | 
[V:3] z8 | 
[V:4] z4C,3D, | 
[V:1] G2A2G2c2 | 
[V:2] G2c2B2e2 | 
[V:3] z8 | 
[V:4] E,2F,2G,2C,2 | 
[V:1] B2A2B2d2- | 
[V:2] defe/f/g2f2- | 
[V:3] z8 | 
[V:4] G,2F,2E,2D,2 | 
[V:1] dcc4B2 | 
[V:2] fedcd4 | 
[V:3] z8 | 
[V:4] A,4G,4 | 
[V:1] c4z2G2 | 
[V:2] c4B4 | 
[V:3] z8 | 
[V:4] A,4G,2E,2 | 
[V:1] A4G4 | 
[V:2] A2f4e2- | 
[V:3] z8 | 
[V:4] F,4C,4 | 
[V:1] F4E4 | 
[V:2] e2d2z4 | 
[V:3] z8 | 
[V:4] z4z2C2- | 
[V:1] D4C4 | 
[V:2] z8 | 
[V:3] z8 | 
[V:4] C2B,4A,2- | 
[V:1] B,4A,4- | 
[V:2] z8 | 
[V:3] z8 | 
[V:4] A,2G,2A,2C2- | 
[V:1] A,4z4 | 
[V:2] z2e4d2- | 
[V:3] z8 | 
[V:4] C2B,A,G,3A, | 
[V:1] z2E2D2B,2 | 
[V:2] d2c3BB2- | 
[V:3] z8 | 
[V:4] B,2C2G,4 | 
[V:1] C4B,2E2- | 
[V:2] B2A2G2E2 | 
[V:3] z8 | 
[V:4] z8 | 
[V:1] E2D2E4 | 
[V:2] F4E2c2 | 
[V:3] z8 | 
[V:4] z4z2A,2 | 
[V:1] z4z2A2 | 
[V:2] B2e4d2 | 
[V:3] z8 | 
[V:4] G,2E,2F,4 | 
[V:1] G2E2F4 | 
[V:2] e4z4 | 
[V:3] z8 | 
[V:4] E,4z2A,2- | 
[V:1] E4z2A2- | 
[V:2] z8 | 
[V:3] z8 | 
[V:4] A,2G,2A,2C2 | 
[V:1] A2G2A2c2 | 
[V:2] z4z2A2- | 
[V:3] z8 | 
[V:4] B,4A,4 | 
[V:1] B4A4 | 
[V:2] A2G2A2c2 | 
[V:3] z8 | 
[V:4] E,4F,4 | 
[V:1] d4c4 | 
[V:2] B4A4 | 
[V:3] z8 | 
[V:4] G,4z4 | 
[V:1] B2A3GG2- | 
[V:2] d4G4 | 
[V:3] z8 | 
[V:4] z2D,2E,4 | 
[V:1] G2F2G4- | 
[V:2] A4G4 | 
[V:3] z8 | 
[V:4] D,4E,4 | 
[V:1] G2FEF4 | 
[V:2] z2c4B2 | 
[V:3] z8 | 
[V:4] C,4D,4 | 
[V:1] E4C4 | 
[V:2] c3defe2- | 
[V:3] z8 | 
[V:4] C,4z4 | 
[V:1] C3DE2F2 | 
[V:2] edcBc2d2 | 
[V:3] z8 | 
[V:4] z8 | 
[V:1] E2F2E2F2- | 
[V:2] c2d2c2A2- | 
[V:3] z8 | 
[V:4] z4z2A,,2 | 
[V:1] F2EDE4 | 
[V:2] A2d4c2 | 
[V:3] z8 | 
[V:4] B,,4A,,4 | 
[V:1] D4z4 | 
[V:2] d2D2E2G2- | 
[V:3] z8 | 
[V:4] B,,4G,,4 | 
[V:1] z2A2B4 | 
[V:2] G^F^FEG4 | 
[V:3] z8 | 
[V:4] A,,4G,,4 | 
[V:1] A4B4 | 
[V:2] F2D4E2- | 
[V:3] z8 | 
[V:4] z8 | 
[V:1] G4A4 | 
[V:2] EDE2F4 | 
[V:3] z8 | 
[V:4] z8 | 
[V:1] G2c3BG2 | 
[V:2] E4C4 | 
[V:3] z8 | 
[V:4] z4z2E,2 | 
[V:1] A2F2G2B2 | 
[V:2] z8 | 
[V:3] z8 | 
[V:4] F,4E,4 | 
[V:1] A2c2B2A2- | 
[V:2] z8 | 
[V:3] z8 | 
[V:4] F,4D,4 | 
[V:1] A2G4F2 | 
[V:2] z2G2A4 | 
[V:3] z8 | 
[V:4] E,4D,4 | 
[V:1] G2E4C2- | 
[V:2] G4A4 | 
[V:3] z8 | 
[V:4] z8 | 
[V:1] C2F4E2 | 
[V:2] F4G4 | 
[V:3] z8 | 
[V:4] z8 | 
[V:1] F2A3Bcd | 
[V:2] F4c4 | 
[V:3] z8 | 
[V:4] z4z2F,2 | 
[V:1] B2G2A2d2- | 
[V:2] z8 | 
[V:3] z8 | 
[V:4] G,4F,4 | 
[V:1] dcBAG4 | 
[V:2] z2d2e4 | 
[V:3] z8 | 
[V:4] G,4E,4 | 
[V:1] A2d2c2B2- | 
[V:2] d4e3d | 
[V:3] z8 | 
[V:4] F,4E,4 | 
[V:1] BAA4^G2 | 
[V:2] c2BAB4 | 
[V:3] z8 | 
[V:4] F,4E,4 | 
[V:1] A8 ||  
[V:2] A8 ||  
[V:3] z8 ||  
[V:4] A,,8 ||  
[V:1]  [K:F] [K:clef=treble][M:2/1]A8 | 
[V:2]  [K:F] [K:clef=treble-8][M:2/1]e8- | 
[V:3]  [K:F] [K:clef=treble-8][M:2/1]A8 | 
[V:4]  [K:F] [K:clef=bass][M:2/1]A,,8 | 
[V:1] G4=B4- | 
[V:2] e8 | 
[V:3] =B4G4 | 
[V:4] E,4E,4 | 
[V:1] B2A2A4- | 
[V:2] d8 | 
[V:3] A8 | 
[V:4] F,4F,4 | 
[V:1] A2G2G4- | 
[V:2] e8 | 
[V:3] =B4c4 | 
[V:4] E,4C,4 | 
[V:1] G2FEF4 | 
[V:2] d8 | 
[V:3] A6=B2 | 
[V:4] D,8 | 
[V:1] G4E4 | 
[V:2] e6dc | 
[V:3] c8 | 
[V:4] C,6B,,A,, | 
[V:1] D8 | 
[V:2] dcBAG4 | 
[V:3] z4d3e | 
[V:4] B,,4B,,4 | 
[V:1] C4z4 | 
[V:2] A2c4A2 | 
[V:3] f2e4d2 | 
[V:4] A,,3B,,C,2D,2- | 
[V:1] z8 | 
[V:2] d2e2d2G2- | 
[V:3] =B2c2d2c=B/A/ | 
[V:4] D,C,A,,2B,,2C,2 | 
[V:1] z8 | 
[V:2] GFE4D2 | 
[V:3] =B2A4G2 | 
[V:4] D,2A,,2B,,4 | 
[V:1] C8- | 
[V:2] E2F2E2A2- | 
[V:3] A8 | 
[V:4] A,,8 | 
[V:1] C8 | 
[V:2] A2GFE4 | 
[V:3] A,8 | 
[V:4] z4A,4 | 
[V:1] F4E4 | 
[V:2] D2d3cA2 | 
[V:3] A4=B2c2 | 
[V:4] F,4G,2A,2- | 
[V:1] F4G4 | 
[V:2] c2d2=B4 | 
[V:3] A4G4 | 
[V:4] A,2D,2E,4 | 
[V:1] A4=B2c2- | 
[V:2] A4z2e2- | 
[V:3] F2D2G4- | 
[V:4] F,4E,2C,2- | 
[V:1] c2=BAG4 | 
[V:2] e2dc=B4 | 
[V:3] G4G4 | 
[V:4] C,2D,2E,4 | 
[V:1] A4E4 | 
[V:2] A4z4 | 
[V:3] z2c4=BA | 
[V:4] A,,2A,4G,F, | 
[V:1] z4G4- | 
[V:2] z4c4 | 
[V:3] =BAGFE3F | 
[V:4] G,F,E,D,C,3D, | 
[V:1] G2A2G2F2- | 
[V:2] =B2A2e2d2- | 
[V:3] G2D2E2F2 | 
[V:4] E,2F,2E,2A,2- | 
[V:1] FEE4D2 | 
[V:2] dcc4=B2 | 
[V:3] C4D4 | 
[V:4] A,G,E,2F,4 | 
[V:1] E2c3=Bd2- | 
[V:2] c3de2d2 | 
[V:3] C4z4 | 
[V:4] E,2A,3G,B,2 | 
[V:1] dcc4=B2 | 
[V:2] e2f2d3c | 
[V:3] z8 | 
[V:4] A,2F,2G,4 | 
[V:1] c4z4 | 
[V:2] A2F2G3F | 
[V:3] z8 | 
[V:4] z2F,4E,2 | 
[V:1] F6E2- | 
[V:2] D4z4 | 
[V:3] A3GA=Bc2- | 
[V:4] F,2D,4C,2 | 
[V:1] EDD4C2 | 
[V:2] z8 | 
[V:3] c=BA4G2 | 
[V:4] D,2F,2E,4 | 
[V:1] D2F2E4 | 
[V:2] z8 | 
[V:3] F2D2C4 | 
[V:4] D,2A,4G,2 | 
[V:1] D2C2=B,4 | 
[V:2] z4e4- | 
[V:3] D2A,2E4 | 
[V:4] F,2A,4^G,2 | 
[V:1] A,8 | 
[V:2] e2c4=BA | 
[V:3] A,8 | 
[V:4] A,6G,F, | 
[V:1] C4C3D | 
[V:2] G2A2G2c2- | 
[V:3] z4A,4 | 
[V:4] E,2F,2E,2C,2- | 
[V:1] E8 | 
[V:2] c2c4c2- | 
[V:3] A,8 | 
[V:4] C,D,E,2A,,2A,2- | 
[V:1] E4E4 | 
[V:2] cAd4^c2 | 
[V:3] A,8 | 
[V:4] A,2G,F,E,4 | 
[V:1] F4F4 | 
[V:2] d4d4 | 
[V:3] A6=B2 | 
[V:4] D,2F,4G,2 | 
[V:1] E3FG2A2- | 
[V:2] c2A2G2F2 | 
[V:3] c4=B2A2 | 
[V:4] A,3G,E,2F,2- | 
[V:1] A2A4G2 | 
[V:2] A2F2G4 | 
[V:3] c2d2=B4 | 
[V:4] F,2E,D,E,4 | 
[V:1] A6GF | 
[V:2] E2F4ED | 
[V:3] A8 | 
[V:4] A,,4A,,4 | 
[V:1] E4z2D2- | 
[V:2] C4D4 | 
[V:3] z2A4G2 | 
[V:4] A,,4B,,4 | 
[V:1] D2C2D4 | 
[V:2] E4D4 | 
[V:3] A4=B2A2 | 
[V:4] A,,4z2D,2- | 
[V:1] E4F4 | 
[V:2] G4F2D2 | 
[V:3] =B2c2A4 | 
[V:4] D,2C,2D,4 | 
[V:1] E2C2D2A2- | 
[V:2] C4z4 | 
[V:3] z4d2c=B/A/ | 
[V:4] E,4F,4 | 
[V:1] AGG4F2 | 
[V:2] e4d4 | 
[V:3] =B2c2A3G/F/ | 
[V:4] E,2C,2D,4 | 
[V:1] G2E2F4 | 
[V:2] e4z2d2- | 
[V:3] E2C2D4 | 
[V:4] C,2C,4B,,2 | 
[V:1] E4F4 | 
[V:2] dcc4=B2 | 
[V:3] G2G4F2 | 
[V:4] C,4D,4 | 
[V:1] E3FG2A2- | 
[V:2] c4c3=B | 
[V:3] G4c4- | 
[V:4] C,6F,2- | 
[V:1] A2=B2c4- | 
[V:2] A2G2F3G | 
[V:3] c2=B2A2c2- | 
[V:4] F,2G,2A,4- | 
[V:1] c2d4c=B | 
[V:2] A2G4d2- | 
[V:3] c2BAG4 | 
[V:4] A,2B,4A,G, | 
[V:1] A3GA2=B2- | 
[V:2] d2c=BA2G2 | 
[V:3] D3EF2E2 | 
[V:4] F,6G,2- | 
[V:1] BAA4G2 | 
[V:2] c2d2=B4 | 
[V:3] C2F2G3F | 
[V:4] G,F,D,2E,4 | 
[V:1] A4F4 | 
[V:2] A2f3ed2- | 
[V:3] D8 | 
[V:4] F,8 | 
[V:1] G4A2GF | 
[V:2] d2c2d4 | 
[V:3] E4D4 | 
[V:4] z4F,4 | 
[V:1] E2D2C4 | 
[V:2] z4e4 | 
[V:3] C2B,2A,4 | 
[V:4] G,4A,4 | 
[V:1] z8 | 
[V:2] f3ec2d2- | 
[V:3] D3EF2B,2- | 
[V:4] F,3G,A,2B,2- | 
[V:1] z8 | 
[V:2] dcf4e2 | 
[V:3] B,CD2C4 | 
[V:4] B,A,G,F,G,4 | 
[V:1] z8 | 
[V:2] f2F2G4 | 
[V:3] F2D2C4 | 
[V:4] F,2F,4E,2 | 
[V:1] F4G2A2- | 
[V:2] A2c2=B2A2- | 
[V:3] F2A2=B2c2- | 
[V:4] F,4z4 | 
[V:1] A2GFE2F2- | 
[V:2] A=Bcd=B2A2 | 
[V:3] c2=BAG2F2 | 
[V:4] F,4G,2A,2- | 
[V:1] F2EDC2D2- | 
[V:2] F4G2A2- | 
[V:3] D4z4 | 
[V:4] A,2G,F,E,2F,2- | 
[V:1] DEF2E2D2 | 
[V:2] A2GFG2F2 | 
[V:3] D4E2F2- | 
[V:4] F,2E,D,C,2D,2- | 
[V:1] F2E2D4 | 
[V:2] A2A4G2 | 
[V:3] FEC2D4 | 
[V:4] D,C,A,,2B,,4 | 
[V:1] C3DE2F2 | 
[V:2] A3=Bc4 | 
[V:3] E2F2E2A2 | 
[V:4] A,,8 | 
[V:1] E2A2G2F2- | 
[V:2] =B2A2=B2c2- | 
[V:3] GEF2E2A2- | 
[V:4] z8 | 
[V:1] FEE4D2 | 
[V:2] c=BAGA3=B | 
[V:3] AGFEF4 | 
[V:4] z8 | 
[V:1] E8- | 
[V:2] c6=BA | 
[V:3] E8- | 
[V:4] A,,4C,4- | 
[V:1] E8- | 
[V:2] G4c2=B2 | 
[V:3] E8- | 
[V:4] C,2B,,2A,,2G,,2 | 
[V:1] E8- | 
[V:2] A2c4=BA | 
[V:3] E8- | 
[V:4] A,,6G,,F,, | 
[V:1] E8 |]  
[V:2] =B8 |]  
[V:3] E8 |]  
[V:4] E,,8 |]  



